X:27
T:The Mason's Apron
Z:Jack Campin, 2006, http://www.campin.me.uk/
M:C|
L:1/8
Q:1/2=120
K:A
AB|c2A2 ABAF|EFAB c2Bc|d2B2 BcBA|Bcde f2ed|
   c2A2 ABAF|EFAB c2Bc|dcde fgaf|edcB A2 :|
AB|c2ec f2ec|A2ec fedc|d2fd g2fd|d2fd gfed|
   c2ec f2ec|A2ec fedc|dcde fgaf|edcB A2 :|

